resources/icons/16px/locomotive.svg

<svg width="16" height="16" viewBox="0 0 16 16" fill="none" xmlns="http://www.w3.org/2000/svg">
<path d="M0 2C0 1.44772 0.447715 1 1 1H7C7.55228 1 8 1.44772 8 2V6H11V4L9.85355 2.85355C9.53857 2.53857 9.76165 2 10.2071 2H13.7929C14.2383 2 14.4614 2.53857 14.1464 2.85355L13 4V6C14.8333 7 17.4 9.6 13 12L14.4879 13.4879C14.6769 13.6769 14.543 14 14.2757 14H13.2942C13.1126 14 12.9471 13.901 12.8502 13.7474C11.9523 12.3239 9.99558 10.6867 8.14858 13.7434C8.05468 13.8988 7.88738 14 7.7058 14H7.2942C7.11262 14 6.94707 13.901 6.85019 13.7474C5.95229 12.3239 3.99558 10.6867 2.14858 13.7434C2.05468 13.8988 1.88738 14 1.7058 14H0V2ZM1 7H4V2H1V7ZM7 7V2H5V7H7Z" fill="#111418"/>
<path d="M4.5 16C5.32843 16 6 15.3284 6 14.5C6 13.6716 5.32843 13 4.5 13C3.67157 13 3 13.6716 3 14.5C3 15.3284 3.67157 16 4.5 16ZM4.5 15C4.22386 15 4 14.7761 4 14.5C4 14.2239 4.22386 14 4.5 14C4.77614 14 5 14.2239 5 14.5C5 14.7761 4.77614 15 4.5 15Z" fill="#111418"/>
<path d="M12 14.5C12 15.3284 11.3284 16 10.5 16C9.67157 16 9 15.3284 9 14.5C9 13.6716 9.67157 13 10.5 13C11.3284 13 12 13.6716 12 14.5ZM11 14.5C11 14.2239 10.7761 14 10.5 14C10.2239 14 10 14.2239 10 14.5C10 14.7761 10.2239 15 10.5 15C10.7761 15 11 14.7761 11 14.5Z" fill="#111418"/>
</svg>

<svg xmlns="http://www.w3.org/2000/svg" viewBox="0 0 16 16">
  <path d="M0 2a1 1 0 0 1 1-1h6a1 1 0 0 1 1 1v4h3V4L9.854 2.854A.5.5 0 0 1 10.207 2h3.586a.5.5 0 0 1 .353.854L13 4v2c1.833 1 4.4 3.6 0 6l1.488 1.488a.3.3 0 0 1-.212.512h-.982a.53.53 0 0 1-.444-.253c-.898-1.423-2.854-3.06-4.701-.004a.52.52 0 0 1-.443.257h-.412a.53.53 0 0 1-.444-.253c-.898-1.423-2.854-3.06-4.701-.004a.52.52 0 0 1-.443.257H0zm1 5h3V2H1zm6 0V2H5v5z"/>
  <path d="M4.5 16a1.5 1.5 0 1 0 0-3 1.5 1.5 0 0 0 0 3m0-1a.5.5 0 1 1 0-1 .5.5 0 0 1 0 1M12 14.5a1.5 1.5 0 1 1-3 0 1.5 1.5 0 0 1 3 0m-1 0a.5.5 0 1 0-1 0 .5.5 0 0 0 1 0"/>
</svg>
